X: 14763
T: Gan Ainm
R: jig
M: 6/8
K: Dmajor
d3 F2G|A2B G2B|d3 F2G|B2G E3|
d3 F2G|A2B G2B|d3 B2G|AFD D3|
d3 F2G|ABA ABA|d3 F2G|BGE E3|
d3 F2G|ABA ABA|d2A BAG|AFD D3||
d2f f2d|g2e f2d|d2f f2d|B2c A2B|
d2f f2d|g2e f2d|c2A B2G|AFD D3|
d3 f2d|gfe fed|d3 f2d|BcB ABA|
d3 f2d|gfe fed|d2A BAG|AFD D3||

